resources/svg/drag-drop-fill.svg

<svg fill="currentColor" viewBox="0 0 24 24" xmlns="http://www.w3.org/2000/svg"><path d="M14 6H16V8H21C21.5523 8 22 8.44772 22 9V16.5L16 13L16.0359 21.0622L18.2592 18.9129L20.041 22H9C8.44772 22 8 21.5523 8 21V16H6V14H8V9C8 8.44772 8.44772 8 9 8H14V6ZM22 17.338V21C22 21.107 21.9832 21.2101 21.9521 21.3068L19.9913 17.9129L22 17.338ZM4 14V16H2V14H4ZM4 10V12H2V10H4ZM4 6V8H2V6H4ZM4 2V4H2V2H4ZM8 2V4H6V2H8ZM12 2V4H10V2H12ZM16 2V4H14V2H16Z"/></svg>

<svg xmlns="http://www.w3.org/2000/svg" viewBox="0 0 24 24" fill="currentColor">
    <g>
        <path fill="none" d="M0 0h24v24H0z"/>
        <path fill-rule="nonzero" d="M14 6h2v2h5a1 1 0 0 1 1 1v7.5L16 13l.036 8.062 2.223-2.15L20.041 22H9a1 1 0 0 1-1-1v-5H6v-2h2V9a1 1 0 0 1 1-1h5V6zm8 11.338V21a1 1 0 0 1-.048.307l-1.96-3.394L22 17.338zM4 14v2H2v-2h2zm0-4v2H2v-2h2zm0-4v2H2V6h2zm0-4v2H2V2h2zm4 0v2H6V2h2zm4 0v2h-2V2h2zm4 0v2h-2V2h2z"/>
    </g>
</svg>
